img/national.svg

<svg width="32" height="34" viewBox="0 0 32 34" fill="none" xmlns="http://www.w3.org/2000/svg">
<g clip-path="url(#clip0_1_187)">
<path d="M12.57 29.898V29.255H13.876V29.895C13.8761 29.991 13.8952 30.0859 13.932 30.1745C13.9689 30.2631 14.0229 30.3436 14.0909 30.4113C14.1589 30.479 14.2395 30.5326 14.3283 30.5691C14.417 30.6056 14.5121 30.6243 14.608 30.624C14.704 30.6244 14.7992 30.6059 14.888 30.5694C14.9769 30.533 15.0577 30.4793 15.1258 30.4116C15.1939 30.3439 15.2479 30.2634 15.2849 30.1748C15.3218 30.0861 15.3409 29.991 15.341 29.895V29.255H16.647V29.895C16.6471 29.991 16.6662 30.0861 16.7031 30.1748C16.7401 30.2634 16.7941 30.3439 16.8622 30.4116C16.9303 30.4793 17.0111 30.533 17.1 30.5694C17.1888 30.6059 17.284 30.6244 17.38 30.624C17.4759 30.6243 17.571 30.6056 17.6597 30.5691C17.7485 30.5326 17.8291 30.479 17.8971 30.4113C17.9651 30.3436 18.0191 30.2631 18.056 30.1745C18.0928 30.0859 18.1119 29.991 18.112 29.895V29.255H19.419V29.895C19.4191 29.991 19.4382 30.0859 19.475 30.1745C19.5119 30.2631 19.5659 30.3436 19.6339 30.4113C19.7019 30.479 19.7825 30.5326 19.8713 30.5691C19.96 30.6056 20.055 30.6243 20.151 30.624C20.2469 30.6243 20.342 30.6056 20.4307 30.5691C20.5195 30.5326 20.6001 30.479 20.6681 30.4113C20.7361 30.3436 20.7901 30.2631 20.827 30.1745C20.8638 30.0859 20.8829 29.991 20.883 29.895V29.255H22.19V29.895C22.1901 29.991 22.2092 30.0859 22.246 30.1745C22.2829 30.2631 22.3369 30.3436 22.4049 30.4113C22.4729 30.479 22.5535 30.5326 22.6423 30.5691C22.731 30.6056 22.8261 30.6243 22.922 30.624C23.018 30.6243 23.113 30.6056 23.2017 30.5691C23.2905 30.5326 23.3711 30.479 23.4391 30.4113C23.5071 30.3436 23.5611 30.2631 23.598 30.1745C23.6348 30.0859 23.6539 29.991 23.654 29.895V29.255H24.961V29.895C24.9611 29.991 24.9802 30.0859 25.017 30.1745C25.0539 30.2631 25.1079 30.3436 25.1759 30.4113C25.2439 30.479 25.3245 30.5326 25.4133 30.5691C25.502 30.6056 25.5971 30.6243 25.693 30.624C25.789 30.6244 25.8842 30.6059 25.973 30.5694C26.0619 30.533 26.1427 30.4793 26.2108 30.4116C26.2789 30.3439 26.3329 30.2634 26.3699 30.1748C26.4068 30.0861 26.4259 29.991 26.426 29.895V29.255H30.503V31.042H12.57V29.898ZM18.18 14.353C18.18 15.238 17.46 15.959 16.574 15.959C15.688 15.959 14.967 15.239 14.967 14.353C14.967 13.467 15.687 12.746 16.574 12.746C17.46 12.746 18.18 13.466 18.18 14.353ZM1.484 2.84001H19.43V13.197C19.1994 12.631 18.8055 12.1465 18.2984 11.8053C17.7914 11.464 17.1942 11.2815 16.583 11.281C15.7683 11.2815 14.9872 11.6053 14.411 12.1813C13.8348 12.7573 13.5108 13.5383 13.51 14.353C13.5113 15.1673 13.8356 15.9479 14.4117 16.5234C14.9878 17.099 15.7687 17.4225 16.583 17.423C17.1941 17.4226 17.7912 17.2402 18.2982 16.8992C18.8052 16.5581 19.1992 16.0738 19.43 15.508V20.158C18.8358 20.0807 18.2317 20.1455 17.6674 20.347C17.1031 20.5485 16.5947 20.8811 16.1838 21.3173C15.773 21.7535 15.4715 22.2809 15.3041 22.8563C15.1368 23.4316 15.1083 24.0385 15.221 24.627H1.484V2.84001ZM18.925 21.59C19.093 21.59 19.258 21.607 19.419 21.642V24.627H16.72C16.6069 24.2789 16.5777 23.909 16.6349 23.5475C16.6921 23.186 16.834 22.8431 17.0491 22.547C17.2641 22.2508 17.5462 22.0097 17.8722 21.8434C18.1982 21.6771 18.559 21.5902 18.925 21.59ZM24.961 6.00501V27.79H7.027V26.736V26.09H8.334V26.734C8.334 26.9281 8.41112 27.1143 8.5484 27.2516C8.68567 27.3889 8.87186 27.466 9.066 27.466C9.26014 27.466 9.44633 27.3889 9.5836 27.2516C9.72088 27.1143 9.798 26.9281 9.798 26.734V26.09H11.105V26.734C11.105 26.9281 11.1821 27.1143 11.3194 27.2516C11.4567 27.3889 11.6429 27.466 11.837 27.466C12.0311 27.466 12.2173 27.3889 12.3546 27.2516C12.4919 27.1143 12.569 26.9281 12.569 26.734V26.09H13.876V26.734C13.876 26.9283 13.9532 27.1146 14.0905 27.252C14.2279 27.3893 14.4142 27.4665 14.6085 27.4665C14.8028 27.4665 14.9891 27.3893 15.1265 27.252C15.2638 27.1146 15.341 26.9283 15.341 26.734V26.09H16.647V26.734C16.647 26.9283 16.7242 27.1146 16.8615 27.252C16.9989 27.3893 17.1852 27.4665 17.3795 27.4665C17.5738 27.4665 17.7601 27.3893 17.8975 27.252C18.0348 27.1146 18.112 26.9283 18.112 26.734V26.09H19.419V26.734C19.419 26.9281 19.4961 27.1143 19.6334 27.2516C19.7707 27.3889 19.9569 27.466 20.151 27.466C20.3451 27.466 20.5313 27.3889 20.6686 27.2516C20.8059 27.1143 20.883 26.9281 20.883 26.734V6.00501H24.961ZM30.493 9.26501V10.906H26.425V9.26601L30.493 9.26501ZM26.425 27.791V25.879H30.493V27.791H26.425ZM26.425 14.283V12.371H30.493V14.283H26.425ZM30.493 17.66H26.425V15.748H30.493V17.66ZM30.493 21.047H26.425V19.125H30.493V21.047ZM30.493 24.414H26.425V22.502H30.493V24.414ZM31.968 7.15801C31.968 6.96387 31.8909 6.77769 31.7536 6.64041C31.6163 6.50313 31.4301 6.42601 31.236 6.42601C31.0419 6.42601 30.8557 6.50313 30.7184 6.64041C30.5811 6.77769 30.504 6.96387 30.504 7.15801V7.80001H29.197V7.15701C29.197 6.96274 29.1198 6.77643 28.9825 6.63906C28.8451 6.50169 28.6588 6.42451 28.4645 6.42451C28.2702 6.42451 28.0839 6.50169 27.9465 6.63906C27.8092 6.77643 27.732 6.96274 27.732 7.15701V7.80001H26.425V3.89701C26.425 3.70287 26.3479 3.51669 26.2106 3.37941C26.0733 3.24213 25.8871 3.16501 25.693 3.16501C25.4989 3.16501 25.3127 3.24213 25.1754 3.37941C25.0381 3.51669 24.961 3.70287 24.961 3.89701V4.54001H23.654V3.89701C23.654 3.70287 23.5769 3.51669 23.4396 3.37941C23.3023 3.24213 23.1161 3.16501 22.922 3.16501C22.7279 3.16501 22.5417 3.24213 22.4044 3.37941C22.2671 3.51669 22.19 3.70287 22.19 3.89701V4.54001H20.883V0.732012C20.883 0.537873 20.8059 0.351686 20.6686 0.21441C20.5313 0.0771329 20.3451 1.17188e-05 20.151 1.17188e-05C19.9569 1.17188e-05 19.7707 0.0771329 19.6334 0.21441C19.4961 0.351686 19.419 0.537873 19.419 0.732012V1.37601H18.112V0.732012C18.112 0.537741 18.0348 0.351426 17.8975 0.214056C17.7601 0.0766856 17.5738 -0.000488281 17.3795 -0.000488281C17.1852 -0.000488281 16.9989 0.0766856 16.8615 0.214056C16.7242 0.351426 16.647 0.537741 16.647 0.732012V1.37601H15.341V0.732012C15.341 0.537741 15.2638 0.351426 15.1265 0.214056C14.9891 0.0766856 14.8028 -0.000488281 14.6085 -0.000488281C14.4142 -0.000488281 14.2279 0.0766856 14.0905 0.214056C13.9532 0.351426 13.876 0.537741 13.876 0.732012V1.37601H12.57V0.732012C12.57 0.537873 12.4929 0.351686 12.3556 0.21441C12.2183 0.0771329 12.0321 1.17188e-05 11.838 1.17188e-05C11.6439 1.17188e-05 11.4577 0.0771329 11.3204 0.21441C11.1831 0.351686 11.106 0.537873 11.106 0.732012V1.37601H9.798V0.732012C9.798 0.537873 9.72088 0.351686 9.5836 0.21441C9.44633 0.0771329 9.26014 1.17188e-05 9.066 1.17188e-05C8.87186 1.17188e-05 8.68567 0.0771329 8.5484 0.21441C8.41112 0.351686 8.334 0.537873 8.334 0.732012V1.37601H7.027V0.732012C7.027 0.537741 6.94983 0.351426 6.81246 0.214056C6.67509 0.0766856 6.48877 -0.000488281 6.2945 -0.000488281C6.10023 -0.000488281 5.91392 0.0766856 5.77654 0.214056C5.63917 0.351426 5.562 0.537741 5.562 0.732012V1.37601H4.256V0.732012C4.256 0.537741 4.17883 0.351426 4.04146 0.214056C3.90409 0.0766856 3.71777 -0.000488281 3.5235 -0.000488281C3.32923 -0.000488281 3.14292 0.0766856 3.00554 0.214056C2.86817 0.351426 2.791 0.537741 2.791 0.732012V1.37601H1.485V0.732012C1.485 0.537741 1.40783 0.351426 1.27046 0.214056C1.13309 0.0766856 0.946772 -0.000488281 0.7525 -0.000488281C0.558229 -0.000488281 0.371915 0.0766856 0.234545 0.214056C0.0971743 0.351426 0.0200005 0.537741 0.0200005 0.732012V26.735C0.0200005 26.9293 0.0971743 27.1156 0.234545 27.253C0.371915 27.3903 0.558229 27.4675 0.7525 27.4675C0.946772 27.4675 1.13309 27.3903 1.27046 27.253C1.40783 27.1156 1.485 26.9293 1.485 26.735V26.091H2.79V26.735C2.79 26.9293 2.86717 27.1156 3.00454 27.253C3.14192 27.3903 3.32823 27.4675 3.5225 27.4675C3.71677 27.4675 3.90309 27.3903 4.04046 27.253C4.17783 27.1156 4.255 26.9293 4.255 26.735V26.091H5.561V29.9C5.561 30.0943 5.63817 30.2806 5.77554 30.418C5.91292 30.5553 6.09923 30.6325 6.2935 30.6325C6.48777 30.6325 6.67409 30.5553 6.81146 30.418C6.94883 30.2806 7.026 30.0943 7.026 29.9V29.256H8.333V29.9C8.333 30.0941 8.41012 30.2803 8.5474 30.4176C8.68467 30.5549 8.87086 30.632 9.065 30.632C9.25914 30.632 9.44533 30.5549 9.5826 30.4176C9.71988 30.2803 9.797 30.0941 9.797 29.9V29.256H11.104V33.161C11.104 33.2571 11.1229 33.3523 11.1597 33.4411C11.1965 33.5299 11.2504 33.6106 11.3184 33.6786C11.3864 33.7466 11.4671 33.8005 11.5559 33.8373C11.6447 33.8741 11.7399 33.893 11.836 33.893C11.9321 33.893 12.0273 33.8741 12.1161 33.8373C12.2049 33.8005 12.2856 33.7466 12.3536 33.6786C12.4216 33.6106 12.4755 33.5299 12.5123 33.4411C12.5491 33.3523 12.568 33.2571 12.568 33.161V32.518H13.875V33.161C13.875 33.3553 13.9522 33.5416 14.0895 33.679C14.2269 33.8163 14.4132 33.8935 14.6075 33.8935C14.8018 33.8935 14.9881 33.8163 15.1255 33.679C15.2628 33.5416 15.34 33.3553 15.34 33.161V32.518H16.646V33.161C16.646 33.3553 16.7232 33.5416 16.8605 33.679C16.9979 33.8163 17.1842 33.8935 17.3785 33.8935C17.5728 33.8935 17.7591 33.8163 17.8965 33.679C18.0338 33.5416 18.111 33.3553 18.111 33.161V32.518H19.418V33.161C19.418 33.3551 19.4951 33.5413 19.6324 33.6786C19.7697 33.8159 19.9559 33.893 20.15 33.893C20.3441 33.893 20.5303 33.8159 20.6676 33.6786C20.8049 33.5413 20.882 33.3551 20.882 33.161V32.518H22.189V33.161C22.189 33.3551 22.2661 33.5413 22.4034 33.6786C22.5407 33.8159 22.7269 33.893 22.921 33.893C23.1151 33.893 23.3013 33.8159 23.4386 33.6786C23.5759 33.5413 23.653 33.3551 23.653 33.161V32.518H24.96V33.161C24.96 33.3553 25.0372 33.5416 25.1745 33.679C25.3119 33.8163 25.4982 33.8935 25.6925 33.8935C25.8868 33.8935 26.0731 33.8163 26.2105 33.679C26.3478 33.5416 26.425 33.3553 26.425 33.161V32.518H27.731V33.161C27.731 33.3553 27.8082 33.5416 27.9455 33.679C28.0829 33.8163 28.2692 33.8935 28.4635 33.8935C28.6578 33.8935 28.8441 33.8163 28.9815 33.679C29.1188 33.5416 29.196 33.3553 29.196 33.161V32.518H30.503V33.161C30.503 33.3551 30.5801 33.5413 30.7174 33.6786C30.8547 33.8159 31.0409 33.893 31.235 33.893C31.4291 33.893 31.6153 33.8159 31.7526 33.6786C31.8899 33.5413 31.967 33.3551 31.967 33.161V7.15801H31.968Z" fill="#BB9D60"/>
<path d="M5.915 5.86499C7.145 5.86499 8.145 6.86499 8.145 8.09499C8.145 9.32499 7.145 10.326 5.915 10.326C4.685 10.326 3.685 9.32599 3.685 8.09599C3.685 6.86599 4.685 5.86499 5.915 5.86499ZM10.231 10.448C10.2304 10.749 10.1362 11.0425 9.96145 11.2876C9.78673 11.5328 9.54013 11.7176 9.25577 11.8164C8.97141 11.9153 8.66336 11.9233 8.37424 11.8394C8.08512 11.7554 7.82924 11.5837 7.642 11.348C8.50865 10.8851 9.15607 10.097 9.442 9.15699C9.912 9.39699 10.232 9.88299 10.232 10.447L10.231 10.448ZM6.181 11.769C6.42385 12.2497 6.79566 12.6534 7.25482 12.9349C7.71399 13.2164 8.24241 13.3646 8.781 13.363C9.55386 13.3622 10.2948 13.0548 10.8413 12.5083C11.3878 11.9618 11.6952 11.2209 11.696 10.448C11.696 9.10899 10.806 7.98399 9.572 7.64099C9.46136 6.74733 9.02818 5.92482 8.35386 5.32802C7.67954 4.73123 6.81049 4.40121 5.91 4.39999C4.93168 4.40105 3.99373 4.79016 3.30195 5.48194C2.61017 6.17372 2.22106 7.11167 2.22 8.08999C2.22059 8.59732 2.32567 9.09908 2.52869 9.56401C2.73171 10.0289 3.02833 10.4471 3.40004 10.7923C3.77176 11.1376 4.21061 11.4026 4.68924 11.5708C5.16787 11.739 5.67601 11.8068 6.182 11.77L6.181 11.769Z" fill="#BB9D60"/>
<path d="M12.247 17.694C12.5008 17.708 12.7396 17.8186 12.9143 18.0032C13.089 18.1878 13.1864 18.4323 13.1864 18.6865C13.1864 18.9407 13.089 19.1852 12.9143 19.3698C12.7396 19.5544 12.5008 19.6651 12.247 19.679C11.9932 19.6651 11.7544 19.5544 11.5797 19.3698C11.405 19.1852 11.3076 18.9407 11.3076 18.6865C11.3076 18.4323 11.405 18.1878 11.5797 18.0032C11.7544 17.8186 11.9932 17.708 12.247 17.694ZM9.79 18.682C9.79 20.034 10.89 21.134 12.242 21.134C13.594 21.134 14.694 20.034 14.694 18.682C14.694 17.33 13.594 16.23 12.242 16.23C11.5919 16.2308 10.9687 16.4894 10.5091 16.9491C10.0494 17.4087 9.79079 18.0319 9.79 18.682Z" fill="#BB9D60"/>
<path d="M15.74 7.297C15.726 7.55079 15.6154 7.78959 15.4308 7.96431C15.2462 8.13904 15.0017 8.23641 14.7475 8.23641C14.4933 8.23641 14.2488 8.13904 14.0642 7.96431C13.8796 7.78959 13.769 7.55079 13.755 7.297C13.771 7.04479 13.8825 6.80815 14.0668 6.63522C14.2511 6.46228 14.4943 6.36602 14.747 6.36602C14.9997 6.36602 15.2429 6.46228 15.4272 6.63522C15.6115 6.80815 15.723 7.04479 15.739 7.297H15.74ZM17.194 7.292C17.194 5.94 16.094 4.84 14.742 4.84C14.0919 4.84079 13.4687 5.09938 13.0091 5.55905C12.5494 6.01871 12.2908 6.64193 12.29 7.292C12.29 8.644 13.39 9.744 14.742 9.744C16.094 9.744 17.194 8.644 17.194 7.292Z" fill="#BB9D60"/>
<path d="M3.522 20.16C4.11063 20.483 4.78049 20.6279 5.45 20.577C5.39693 20.7908 5.27393 20.9808 5.10053 21.1166C4.92714 21.2525 4.7133 21.3266 4.493 21.327C4.34819 21.3266 4.20522 21.2944 4.07421 21.2327C3.94321 21.171 3.82735 21.0813 3.73483 20.9699C3.64231 20.8585 3.57538 20.7281 3.53878 20.588C3.50218 20.4479 3.49679 20.3014 3.523 20.159L3.522 20.16ZM7.213 17.104C7.213 18.217 6.307 19.124 5.193 19.124C4.65777 19.1229 4.1448 18.9097 3.76652 18.5311C3.38824 18.1524 3.17553 17.6392 3.175 17.104C3.175 15.99 4.08 15.084 5.194 15.084C6.307 15.084 7.214 15.99 7.214 17.104H7.213ZM6.935 20.12C7.46457 19.8144 7.90441 19.3748 8.21036 18.8454C8.5163 18.316 8.67758 17.7154 8.678 17.104C8.67694 16.1803 8.30954 15.2948 7.65639 14.6416C7.00324 13.9885 6.11769 13.6211 5.194 13.62C4.27031 13.6211 3.38476 13.9885 2.73161 14.6416C2.07846 15.2948 1.71106 16.1803 1.71 17.104C1.71 17.859 1.952 18.558 2.362 19.129C2.15236 19.4979 2.04178 19.9147 2.041 20.339C2.041 21.691 3.141 22.791 4.493 22.791C4.83331 22.7905 5.1698 22.7193 5.48112 22.5818C5.79243 22.4444 6.07177 22.2437 6.3014 21.9925C6.53103 21.7414 6.70593 21.4452 6.81501 21.1229C6.92408 20.8005 6.96494 20.459 6.935 20.12Z" fill="#BB9D60"/>
</g>
<defs>
<clipPath id="clip0_1_187">
<rect width="32" height="34" fill="white"/>
</clipPath>
</defs>
</svg>

<svg width="32" height="34" fill="none" xmlns="http://www.w3.org/2000/svg"><g clip-path="url(#clip0_1_187)" fill="#BB9D60"><path d="M12.57 29.898v-.643h1.306v.64a.73.73 0 001.012.674.73.73 0 00.453-.674v-.64h1.306v.64a.73.73 0 001.013.674.73.73 0 00.452-.674v-.64h1.307v.64a.73.73 0 001.25.516.73.73 0 00.214-.516v-.64h1.307v.64a.73.73 0 001.25.516.73.73 0 00.214-.516v-.64h1.307v.64a.73.73 0 001.012.674.73.73 0 00.453-.674v-.64h4.077v1.787H12.57v-1.144zm5.61-15.545c0 .885-.72 1.606-1.606 1.606-.886 0-1.607-.72-1.607-1.606a1.607 1.607 0 013.213 0zM1.484 2.84H19.43v10.357a3.076 3.076 0 00-2.847-1.916 3.075 3.075 0 00-3.073 3.072 3.075 3.075 0 005.92 1.155v4.65a3.788 3.788 0 00-4.209 4.469H1.484V2.84zm17.441 18.75c.168 0 .333.017.494.052v2.985H16.72a2.32 2.32 0 012.205-3.037zm6.036-15.585V27.79H7.027v-1.7h1.307v.644a.732.732 0 001.464 0v-.644h1.307v.644a.732.732 0 001.464 0v-.644h1.307v.644a.733.733 0 001.465 0v-.644h1.306v.644a.733.733 0 001.465 0v-.644h1.307v.644a.732.732 0 001.464 0V6.005h4.078zm5.532 3.26v1.641h-4.068v-1.64l4.068-.001zm-4.068 18.526v-1.912h4.068v1.912h-4.068zm0-13.508v-1.912h4.068v1.912h-4.068zm4.068 3.377h-4.068v-1.912h4.068v1.912zm0 3.387h-4.068v-1.922h4.068v1.922zm0 3.367h-4.068v-1.912h4.068v1.912zm1.475-17.256a.732.732 0 10-1.464 0V7.8h-1.307v-.643a.733.733 0 00-1.465 0V7.8h-1.307V3.897a.732.732 0 10-1.464 0v.643h-1.307v-.643a.732.732 0 10-1.464 0v.643h-1.307V.732a.732.732 0 10-1.464 0v.644h-1.307V.732a.733.733 0 00-1.465 0v.644h-1.306V.732a.733.733 0 00-1.465 0v.644H12.57V.732a.732.732 0 10-1.464 0v.644H9.798V.732a.732.732 0 10-1.464 0v.644H7.027V.732a.732.732 0 10-1.465 0v.644H4.256V.732a.732.732 0 10-1.465 0v.644H1.485V.732a.732.732 0 10-1.465 0v26.003a.733.733 0 101.465 0v-.644H2.79v.644a.733.733 0 101.465 0v-.644h1.306V29.9a.733.733 0 101.465 0v-.644h1.307v.644a.732.732 0 001.464 0v-.644h1.307v3.905a.732.732 0 101.464 0v-.643h1.307v.643a.733.733 0 001.465 0v-.643h1.306v.643a.733.733 0 001.465 0v-.643h1.307v.643a.732.732 0 001.464 0v-.643h1.307v.643a.732.732 0 001.464 0v-.643h1.307v.643a.733.733 0 001.465 0v-.643h1.306v.643a.733.733 0 001.465 0v-.643h1.307v.643a.732.732 0 001.464 0V7.158h.001z"/><path d="M5.915 5.865c1.23 0 2.23 1 2.23 2.23s-1 2.231-2.23 2.231-2.23-1-2.23-2.23 1-2.231 2.23-2.231zm4.316 4.583a1.451 1.451 0 01-2.589.9 3.707 3.707 0 001.8-2.191c.47.24.79.726.79 1.29l-.001.001zm-4.05 1.321a2.903 2.903 0 002.6 1.594 2.918 2.918 0 002.915-2.915c0-1.339-.89-2.464-2.124-2.807A3.695 3.695 0 005.91 4.4a3.694 3.694 0 00-3.69 3.69 3.694 3.694 0 003.962 3.68l-.001-.001zm6.066 5.925a.994.994 0 010 1.985.994.994 0 010-1.985zm-2.457.988c0 1.352 1.1 2.452 2.452 2.452 1.352 0 2.452-1.1 2.452-2.452 0-1.352-1.1-2.452-2.452-2.452a2.455 2.455 0 00-2.452 2.452zm5.95-11.385a.994.994 0 01-1.985 0 .994.994 0 011.984 0h.001zm1.454-.005c0-1.352-1.1-2.452-2.452-2.452a2.455 2.455 0 00-2.452 2.452c0 1.352 1.1 2.452 2.452 2.452 1.352 0 2.452-1.1 2.452-2.452zM3.522 20.16a3.462 3.462 0 001.928.417.988.988 0 01-1.376.656.989.989 0 01-.551-1.074l-.001.001zm3.691-3.056c0 1.113-.906 2.02-2.02 2.02a2.022 2.022 0 01-2.018-2.02c0-1.114.905-2.02 2.019-2.02 1.113 0 2.02.906 2.02 2.02h-.001zm-.278 3.016a3.485 3.485 0 001.743-3.016 3.488 3.488 0 00-3.484-3.484 3.488 3.488 0 00-3.484 3.484c0 .755.242 1.454.652 2.025-.21.369-.32.786-.321 1.21 0 1.352 1.1 2.452 2.452 2.452a2.455 2.455 0 002.442-2.671z"/></g><defs><clipPath id="clip0_1_187"><path fill="#fff" d="M0 0h32v34H0z"/></clipPath></defs></svg>
